!!!!SEGMENT: pl-wumfc--n18053--007_noskowski-zygmunt--livia-quintilla-akt-pierwszy-scena-ii.krn
!!!cenid: 18xx:4223
!!!COM: Noskowski, Zygmunt
!!!COM-rismID: pe106604
!!!CDT: 1846/05/02-1909/07/23
!!!CNT: Polish
!!!OPR: Livia Quintilla
!!!OTL: Akt pierwszy - Scena II
!!!OMV: 007
!!!PDT: 1898
!!!AGN:
!!!SMS-siglum: PL-Wumfc
!!!SMS-shelfmark: N18053
!!!SMS-shelfwork: 001-007 M
!!!SMS-variant:
!!!SMS-altvar:
!!!NIFC-rismSourceID: 1001161204
!!!NIFC-rismChildID: 1001161204
!!!NIFC-islandoraID: pl-wumfc:1491
!!!URL-pdf-islandora: https://repozytorium.nifc.pl/islandora/object/pl-wumfc:1491/datastream/PDF/view
!!!URL-scan: https://polish.musicsources.pl/pl/lokalizacje/galeria/druki-muzyczne/11843/24 @EN{Scan on Polish Music Sources Website} @PL{Skany w portalu Dziedzictwo Muzyki Polskiej w otwartym dostępie}
!!!IIIF:
!!!ONB-nifc: Skany 0024-0025
!!!AIN: 2 piano 1 vox
!!!key: G-
**kern	**kern	**dynam	**kern	**text	**dynam
*part3	*part2	*part2	*part1	*part1	*part1
*staff3	*staff2	*	*staff1	*staff1	*
*I"PIANO	*I"PIANO	*	*I"Livia	*	*
*I'pf	*I'pf	*	*I'L.	*	*
*ICklav	*ICklav	*	*ICvox	*	*
*Ipiano	*Ipiano	*	*Ivox	*	*
*clefF4	*clefG2	*	*clefG2	*	*
*G-:	*G-:	*	*G-:	*	*
*k[b-e-a-d-g-c-]	*k[b-e-a-d-g-c-]	*	*k[b-e-a-d-g-c-]	*	*
*M4/4	*M4/4	*	*M4/4	*	*
*met(c)	*met(c)	*	*met(c)	*	*
=1	=1	=1	=1	=1	=1
!	!LO:TX:a:B:t=Andante molto cantabile.	!	!	!	!
1r	4r	.	1ryy	.	.
.	8r	.	.	.	.
.	8d-/	p	.	.	.
.	(>8c-/L	.	.	.	.
.	8g-/	.	.	.	.
.	8b-/	.	.	.	.
.	8g-/J	.	.	.	.
=2	=2	=2	=2	=2	=2
*^	*^	*	*	*	*
(4A-/	[2DD-\ [2D-	8f/	[2c-\	.	1ryy	.	.
.	.	4e-/	.	.	.	.	.
4G-/	.	.	.	.	.	.	.
.	.	16g-/LL	.	.	.	.	.
.	.	16f/JJ	.	.	.	.	.
4F/)	4DD-\] 4D-]	4d-/)	4c-\]	.	.	.	.
4r	4r	8r	4rc	.	.	.	.
.	.	(8d-/	.	mf	.	.	.
=3	=3	=3	=3	=3	=3	=3	=3
(4G-/	2DD-\	8b-/	2c-\ 2e-	.	1ryy	.	.
.	.	4a-/	.	<	.	.	.
4E-/	.	.	.	.	.	.	.
.	.	16cc-/LL	.	.	.	.	.
.	.	16g-/JJ	.	[	.	.	.
4A-/)	4D-\	4f/)	4c-\ 4d-	.	.	.	.
4r	4ryy	8r	4rc	.	.	.	.
.	.	(8a-/	.	.	.	.	.
*v	*v	*	*	*	*	*	*
=4	=4	=4	=4	=4	=4	=4
!	!LO:N;vis=2.	!	!	!	!	!
[2AA-/	4.ee-/	[2c-\ [2g-	.	1ryy	.	.
.	8dd-/	.	.	.	.	.
4AA-/]	[2cc-/)	8c-\L] 8g-]	.	.	.	.
.	.	8f\	.	.	.	.
4r	.	8dn\	.	.	.	.
.	.	8e-\J	.	.	.	.
=5	=5	=5	=5	=5	=5	=5
*^	*	*	*	*	*	*
4.A-/	[2D-\	(8cc-/L]	[2c-\	.	1ryy	.	.
.	.	8e-/	.	.	.	.	.
.	.	8f/	.	.	.	.	.
8G-/	.	8b-/J	.	.	.	.	.
4F/	4D-\]	4a-/	4c-\]	>	.	.	.
4r	4ryy	4an/)	4r	]	.	.	.
*v	*v	*	*	*	*	*	*
!!LO:LB:g=original	!	!	!	!	!	!
=6	=6	=6	=6	=6	=6	=6
!	!	!	!	!LO:TX:a:t=Livia. (sama)	!	!
2.GG-/ 2.D-	(8b-/L	2.B-\	.	2dd-\	Tak!	.
.	8a-X/	.	.	.	.	.
.	8f/	.	.	.	.	.
.	8g-/J	.	.	.	.	.
.	4.d-/	.	.	4r	.	.
4GG-/ 4D-	.	4B-\	.	8.ee-\	nie-	.
.	8g-/	.	.	.	.	.
.	.	.	.	16ff\	-chaj	.
=7	=7	=7	=7	=7	=7	=7
*^	*	*	*	*	*	*
4D-/	2.GG-\	8f/L	2.c-\	.	4ee-\	zno-	.
.	.	8e-/	.	.	.	.	.
8A-/L	.	8d-/	.	.	8f/	-wu	.
8G-/J	.	8e-/J	.	.	8g-/	pio-	.
4F/	.	4.f/)	.	.	(8a-/L	-sen-	.
.	.	.	.	.	8b-/J)	.	.
4D-/	4GG-\	.	4c-\	.	8cc-\	-ka	.
.	.	(8f/	.	.	8a-/	za-	.
*v	*v	*	*	*	*	*	*
=8	=8	=8	=8	=8	=8	=8
.	.	.	.	(8qcc-/	.	.
2GG-/ 2D-	8g-/L	2B-\	.	(2dd-\)	-dzwo-	.
.	8b-/	.	.	.	.	.
.	8f/	.	.	.	.	.
.	8g-/J	.	.	.	.	.
2EE-/ 2E-	4.a-/	2cn\ 2g-	.	4ccn\	.	.
.	.	.	.	8g-/L	.	.
.	8an/)	.	.	8cc/J)	.	.
=9	=9	=9	=9	=9	=9	=9
4GGG-/ 4GG-	4.B-/ 4.g- 4.b-	2.ryy	.	2.dd-\	-ni	.
4E-\ 4G-	.	.	.	.	.	.
.	(>8cn/	.	.	.	.	.
4D-\ 4G- 4B-	8d-/L	.	.	.	.	.
.	8e-/	.	.	.	.	.
4BB-\ 4G- 4B-	8f/	4d-\	.	8r	.	.
.	8g-/J)	.	.	8g-/	Co	.
!!LO:LB:g=original	!	!	!	!	!	!
=10	=10	=10	=10	=10	=10	=10
4DD-/ 4D-	(4.f/	2c-X\	.	(4cc-X\	mnie	.
4D-\ 4A-	.	.	.	8b-\)	.	.
.	16e-/LL	.	.	8a-/	u-	.
.	16f/JJ	.	.	.	.	.
4EE-/ 4E-	4g-/	2c-\	.	(8cc-\L	-pa-	.
.	.	.	.	8dd-\J)	.	.
4E-\ 4G-	4cc-/)	.	.	8ee-\	-ja	.
.	.	.	.	8e-/	i	.
=11	=11	=11	=11	=11	=11	=11
4AAA-/ 4AA-	(4.e-/	2G-\ 2c-	.	(4.g-/	pieś-	.
4AA-/ 4E-	.	.	.	.	.	.
.	8en/)	.	.	8b-\)	.	.
4DD-/ 4D-	(8f/L	4F\ 4c-	.	4a-/	-ci	.
.	8b-/	.	.	.	.	.
4r	8a-/	4r	.	4r	.	.
.	8dd-/J)	.	.	.	.	.
*	*v	*v	*	*	*	*
=12	=12	=12	=12	=12	=12
*	*8va	*	*	*	*
4GGG-/ 4GG-	(16gg-/LL 16ddd-	pp	(8b-/L	nie-	.
.	16dd-/ 16bb-	.	.	.	.
.	16gg-/ 16ddd-	.	8g-/J)	.	.
.	16dd-/JJ 16bb-	.	.	.	.
4D-\ 4G- 4B-	16gg-/LL 16ddd-	.	8.dd-\	-chaj	.
.	16dd-/ 16bb-	.	.	.	.
.	16gg-/ 16ddd-	.	.	.	.
.	16dd-/JJ) 16bb-	.	16ee-\	prze-	.
4GGG-/ 4GG-	(16gg-/LL 16eee-	.	(8ee-\	-de-	.
.	16ee-/ 16bb-	.	.	.	.
.	16gg-/ 16eee-	.	4gg-\)	.	.
.	16ee-/JJ 16bb-	.	.	.	.
4E-\ 4G- 4B-	16gg-/LL 16eee-	.	.	.	.
.	16ee-/ 16bb-	.	.	.	.
.	16gg-/ 16eee-	.	8b-\	-mną	.
.	16ee-/JJ) 16bb-	.	.	.	.
!!LO:LB:g=original	!	!	!	!	!
=13	=13	=13	=13	=13	=13
4GGG-/ 4GG-	(16aa-/LL 16eee-	.	8ccn\	ca-	.
.	16ee-/ 16cccn	.	.	.	.
.	16aa-/ 16eee-	.	8ee-\	-ły	.
.	16ee-/JJ 16ccc	.	.	.	.
4E-\ 4A- 4cn	16aa-/LL 16eee-	.	8.aa-\	świat	.
.	16ee-/ 16ccc	.	.	.	.
.	16aa-/ 16eee-	.	.	.	.
.	16ee-/JJ) 16ccc	.	16a-/	za-	.
4FFF/ 4FF	(16ff/LL 16ddd-	.	(8ccn\L	-sło-	.
.	16dd-/ 16aa-	.	.	.	.
.	16ff/ 16ddd-	.	8dd-\J)	.	.
.	16dd-/JJ 16aa-	.	.	.	.
4D-\ 4A- 4d-	16ff/LL 16ddd-	.	(8ee-\L	-ni	.
.	16dd-/ 16aa-	.	.	.	.
.	16ff/ 16ddd-	.	8ff\J)	.	.
.	16dd-/JJ) 16aa-	.	.	.	.
=14	=14	=14	=14	=14	=14
4EE-/	(16gg-/LL 16ddd-	.	8ff\	Ży-	.
.	16ee-/ 16bb-	.	.	.	.
.	16gg-/ 16ddd-	.	4b-\	-cia	.
.	16ee-/JJ 16bb-	.	.	.	.
4G-\ 4B- 4d-	16gg-/LL 16ddd-	.	.	.	.
.	16ee-/ 16bb-	.	.	.	.
.	16gg-/ 16ddd-	.	(16ccn\LL	niech	.
.	16ee-/JJ) 16bb-	.	16b-\JJ)	.	.
4FF/	16r	.	8dd-\	skry-	.
.	(16ccn/LL 16aan	.	.	.	.
.	16ee-/ 16ccc-	.	4f/	-je	.
.	16cc/JJ 16aa	.	.	.	.
8E-\ 8An 8cn	8ee-/) 8ccc-	.	.	.	.
*	*X8va	*	*	*	*
8r	8r	.	16r	.	.
.	.	.	16g-/	bo-	.
=15	=15	=15	=15	=15	=15
*	*^	*	*	*	*
2BB-\ 2F	8r	2d-\	p	4an/	-le-	.
.	(8f/L	.	.	.	.	.
.	8b-/	.	.	2b-\	-ści!	.
.	8g-/J	.	.	.	.	.
4BB-\ 4F	8f/L)	4d-\	.	.	.	.
.	(8f/	.	.	.	.	.
4BB-\ 4F	8b-/	4d-\	.	4r	.	.
.	8an/J	.	.	.	.	.
!!LO:LB:g=original	!	!	!	!	!	!
=16	=16	=16	=16	=16	=16	=16
4BB-\ 4F	8f/L)	4e-\	.	8ccn\	Ach!	.
.	(8f/	.	.	8r	.	.
2BB-\ 2F	8b-/	2e-\	.	8dd-\	za-	.
.	8an/J	.	.	8cc\	-słu-	.
.	8f/L)	.	.	8ff\	-cha-	.
.	(8f/	.	.	8ee-\	-na	.
4BB-\ 4F	8b-/	4e-\	.	8gg-\	wje-	.
.	8a/J	.	.	8ff\	-go	.
=17	=17	=17	=17	=17	=17	=17
4BB-\ 4F	8f/L)	4d-\	.	8.ee-\	śpiew	.
.	(8f/	.	.	.	.	.
.	.	.	.	16gg-\	u-	.
2BB-\ 2F	8b-/	2d-\	.	2ff\	-ro-	.
.	8an/J	.	.	.	.	.
.	8f/L)	.	.	.	.	.
.	(8f/	.	.	.	.	.
4BB-\ 4F	8a-X/	4d-\	.	4b-\	-czy,	.
.	8g-/J)	.	.	.	.	.
=18	=18	=18	=18	=18	=18	=18
4BB-\ 4F	(4f/	8cn\L	.	8.an/	Chcia-	.
.	.	8c\	.	.	.	.
.	.	.	.	16dd-\	-łą-	.
2BB-\ 2F	2f/	8e-\	.	4ccn\	-bym	.
.	.	8d-\J	.	.	.	.
.	.	8c\L	.	(8bn\L	ma-	.
.	.	8c\	.	8cc\J)	.	.
4BB-\ 4F	4an/)	8e-\	.	8g-/	-rzyć	.
.	.	8c\J	.	8f/	bez	.
!!LO:PB:g=original	!	!	!	!	!	!
=19	=19	=19	=19	=19	=19	=19
4BB-\ 4F	(8f/L	4d-\	.	(8ff\L	koń-	.
.	8f/	.	.	8an\J)	.	.
2BB-\ 2F	8b-/	2d-\	<	2b-\	-ca.	.
.	8a-/J	.	.	.	.	.
.	8f/L	.	.	.	.	.
.	8an/	.	.	.	.	.
4r	8b-/	4r	[	4r	.	.
.	8dd-/J)	.	.	.	.	.
*	*v	*v	*	*	*	*
=20	=20	=20	=20	=20	=20
8BBB-/L 8BB-	(4ccn\ 4ff 4cccn	mf	1r	.	.
(8F/J	.	.	.	.	.
4E-\) 4An	8dd-\L 8ff 8ddd-	.	.	.	.
.	8cc\J) 8ccc	.	.	.	.
8BBB-/L 8BB-	(8ff\L 8aa- 8ddd-	.	.	.	.
(8F/J	8ee-\ 8eee-	.	.	.	.
4E-\) 4cn	8gg-\ 8ggg-	.	.	.	.
.	8ff\J) 8fff	.	.	.	.
=21	=21	=21	=21	=21	=21
*	*8va	*	*	*	*
8BBB-/L 8BB-	(8ee-\L 8eee-	.	4r	.	.
(8F/J	8gg-\J 8ggg-	.	.	.	.
4D-\) 4B-	2ff\ 2fff)	.	2ff\	Ma-	.
8BBB-/L 8BB-	.	.	.	.	.
(8F/J	.	.	.	.	.
4D-\) 4B-	4b-/ 4bb-	.	4b-\	-rzyć	.
=22	=22	=22	=22	=22	=22
8BBB-/L 8BB-	4an/ 4aan	.	8an/	ach!	.
(8F/J	.	.	8r	.	.
4E-\) 4cn	8gg-\L 8ggg-	.	8gg-\	wje-	.
.	8ff\J 8fff	.	8ff\	-go	.
8BBB-/L 8BB-	8ee-/L 8eee-	<	8ee-\	za-	.
(8F/J	8dd-/J 8ddd-	.	8dd-\	-pa-	.
4E-\) 4An	8ccn/L 8cccn	.	8ccn\	-trzo-	.
.	8gg-/J 8ggg-	.	8gg-\	-na	.
!!LO:LB:g=original	!	!	!	!	!
=23	=23	=23	=23	=23	=23
!	!	!	!	!	!LO:DY:a
8BBB-/L 8BB-	4ff\ 4fff	f	(4ff\	o-	f
(>8F/J	.	.	.	.	.
4D-\) 4B-	[4bb-\ [4bbb-	.	[4bb-\	.	.
4DDD-/ 4DD-	8bb-\L] 8bbb-]	.	8bb-\L]	.	.
.	8aa-\J 8aaa-	.	8aa-\J)	.	.
8A-\ 8c-X 8f	8ff\ 8fff	.	8ff\	-czy	.
*	*X8va	*	*	*	*
8r;	8r;	.	16r;	.	.
!	!	!	!	!	!LO:DY:a
.	.	.	16dd-\	Wte	f
=24	=24	=24	=24	=24	=24
*	*^	*	*	*	*
2r	2r	2ryy	.	8cc-X\	jas-	.
.	.	.	.	(16b-/LL	-ne	.
.	.	.	.	16a-/JJ)	.	.
.	.	.	.	(2gg-^^\	słoń-	.
2AA-^^/ 2E-	(4.a-^^/	2c-\ 2e- 2g-	f >	.	.	.
.	.	.	.	8ee-\L	.	.
.	8b-/)	.	]	8gg-\J)	.	.
*	*v	*v	*	*	*	*
=25	=25	=25	=25	=25	=25
2DD-/ 2D-	2c-/ 2d- 2f 2cc-	mf	[2ff\	-ca!	.
2r	8r	.	8ff\]	.	.
.	(8c-/	p	8r	.	.
.	8d-/L	.	4r	.	.
.	8f/J	.	.	.	.
=26	=26	=26	=26	=26	=26
[2D-\ [2A- [2c-	8a-/L)	.	2r	.	.
.	(8e-/	.	.	.	.
.	8f/	.	.	.	.
.	8a-/J	.	.	.	.
4D-\] 4A-] 4c-]	4f/) 4cc-	.	4r	.	.
8r;	8r;	.	8r;	.	.
!!LO:LB:g=original	!	!	!	!	!
*kcancel	*kcancel	*	*kcancel	*	*
=27||	=27||	=27||	=27||	=27||	=27||
*k[f#c#g#]	*k[f#c#g#]	*	*k[f#c#g#]	*	*
*M3/4	*M3/4	*	*M3/4	*	*
!	!LO:TX:a:B:t=Poco Allegro agitato	!	!	!	!
8r	8C#</	f	8r	.	.
=28	=28	=28	=28	=28	=28
2.FFF#^^\ 2.FF#	8D</L	.	2.r	.	.
.	8F#</	.	.	.	.
.	8A</	.	.	.	.
.	8G#</	.	.	.	.
.	8A</	.	.	.	.
.	8d/J	.	.	.	.
=29	=29	=29	=29	=29	=29
2D^^\ 2F# 2A	8b/L	.	2.r	.	.
.	8a/	.	.	.	.
.	8g#/	.	.	.	.
.	8f#/	.	.	.	.
4FF#/	8e/	.	.	.	.
.	8d/J	.	.	.	.
=30	=30	=30	=30	=30	=30
2.EE#X^^/	8B#X/L	.	2.r	.	.
.	8c#/	.	.	.	.
.	8g#/	.	.	.	.
.	8B#/	.	.	.	.
.	8d/	.	.	.	.
.	8c#/J	.	.	.	.
=31	=31	=31	=31	=31	=31
2CC#\	8F##X</L	.	2.r	.	.
.	8G#</	.	.	.	.
.	8A</	.	.	.	.
.	8G#</	.	.	.	.
4rCC	8E#X</	.	.	.	.
.	8C#</J	.	.	.	.
=32	=32	=32	=32	=32	=32
2.FFF#\ 2.FF#	8D</L	.	2.r	.	.
!	!LO:TX:t=P:problem: kasownik przy krzyżyku	!	!	!	!
.	8F#X</	.	.	.	.
.	8A</	.	.	.	.
.	8G#</	.	.	.	.
.	8A</	.	.	.	.
.	8d/J	.	.	.	.
!!LO:LB:g=original	!	!	!	!	!
=33	=33	=33	=33	=33	=33
2D^^\ 2F# 2A	8b/L	.	2.r	.	.
.	8a/	.	.	.	.
.	8g#/	.	.	.	.
.	8f#/	.	.	.	.
4FF#/	8e/	.	.	.	.
.	8d/J	.	.	.	.
=34	=34	=34	=34	=34	=34
2.EE#X^^/	8B#X/L	.	2.r	.	.
.	8c#/	.	.	.	.
.	8g#/	.	.	.	.
.	8B#/	.	.	.	.
.	8d/	.	.	.	.
.	8c#/J	.	.	.	.
=35	=35	=35	=35	=35	=35
2CC#\	8F##X</L	.	2.r	.	.
.	8G#</	.	.	.	.
.	8A</	.	.	.	.
.	8Bn</	.	.	.	.
4r	8c#/	.	.	.	.
.	8g#/J	.	.	.	.
=36	=36	=36	=36	=36	=36
!	!	!	!	!	!LO:DY:a
4FF#^^/	8a/L	.	2ff#\	Jak	f
.	8g#/	.	.	.	.
4C#^^\ 4A	8f#/	.	.	.	.
.	8e/	.	.	.	.
4r	8d/	.	4f#/	to?	.
.	8c#/J	.	.	.	.
=37	=37	=37	=37	=37	=37
4AA/	8B#X/L	.	4r	.	.
.	8c#/	.	.	.	.
4C#\ 4F#	8d/	.	4r	.	.
.	8c#/	.	.	.	.
4EE#X/	8Bn/	.	4g#/	czy	.
.	8c#/J	.	.	.	.
!!LO:LB:g=original	!	!	!	!	!
=38	=38	=38	=38	=38	=38
4FF#/	8A/L	.	2a/	du-	.
.	8c#/	.	.	.	.
4C#\ 4A	8e#X/	.	.	.	.
.	8f#/	.	.	.	.
4r	8g#/	.	4b\	-ma	.
.	8f#/J	.	.	.	.
=39	=39	=39	=39	=39	=39
4AA/	8c#/L	.	4cc#\	we	.
.	8e#X/	.	.	.	.
4F#\ 4c#	8f#/	.	4.een\	mnie	.
.	8a/	.	.	.	.
4r	8cc#/	.	.	.	.
!	!	!	!LO:N:vis=4	!	!
.	8f#/J	.	8dd\	za-	.
=40	=40	=40	=40	=40	=40
4EE#X/	8g#/L	.	(4cc#\	-mar-	.
.	8a/	.	.	.	.
4C#\ 4B	8b/	.	[2gg#\	.	.
.	8cc#/	.	.	.	.
4r	8dd/	.	.	.	.
.	8cc#/J	.	.	.	.
=41	=41	=41	=41	=41	=41
4CC#/	8b/L	.	2gg#\]	.	.
.	8a/	.	.	.	.
4C#\ 4E#X 4B	8g#/	.	.	.	.
.	8f#/	.	.	.	.
4r	8e#X/	.	4b\)	.	.
.	8d/J	.	.	.	.
=42	=42	=42	=42	=42	=42
4FF#/	8c#/L	.	2a/	-ła?	.
.	8f#/	.	.	.	.
4C#\ 4A	8c#/	.	.	.	.
.	8B/	.	.	.	.
4r	8d/	.	4r	.	.
.	8c#/J	.	.	.	.
!!LO:PB:g=original	!	!	!	!	!
=43	=43	=43	=43	=43	=43
2.rBB	8G#</L	.	2.r	.	.
.	8B</	.	.	.	.
.	8A</	.	.	.	.
.	8E#X</	.	.	.	.
.	8F#</	.	.	.	.
.	8G#</J	.	.	.	.
=44	=44	=44	=44	=44	=44
4FF#/ 4F#	8A/L	.	[2.cc#\	Czy	.
.	8B/	.	.	.	.
4F#\ 4A	8c#/	.	.	.	.
.	8e#X/	.	.	.	.
4A\ 4c#	8f#/	.	.	.	.
.	8g#/J	.	.	.	.
=45	=45	=45	=45	=45	=45
4c#\ 4f#	8a/L	.	2cc#\]	.	.
.	8g#/	.	.	.	.
4r	8b/	.	.	.	.
.	8a/	.	.	.	.
4r	8f#/	.	8a/	w nie-	.
.	8c#/J	.	8g#/	-wol-	.
=46	=46	=46	=46	=46	=46
4DD#X/ 4D#X	8f#/L	.	2a/	-ni-	.
.	8e#X/	.	.	.	.
4D#\ 4A 4c#	8f#/	.	.	.	.
.	8g#/	.	.	.	.
4r	8a/	.	4ee\	-ku	.
.	8cc#/J	.	.	.	.
=47	=47	=47	=47	=47	=47
4FFF#/ 4FF#	8a/L	.	4dd#X\	wi-	.
.	8f#/	.	.	.	.
4D#X\ 4A	8c#/	.	4a/	-dzę	.
.	8B#X/	.	.	.	.
4r	8c#/	.	8r	.	.
.	8a/J	.	8cc#\	ko-	.
!!LO:LB:g=original	!	!	!	!	!
=48	=48	=48	=48	=48	=48
4GGG#/ 4GG#	8g#/L	.	(2b#X\	-chan-	.
.	8a/	.	.	.	.
4F#\ 4B#X	8g#/	.	.	.	.
.	8d#X/	.	.	.	.
4G#\ 4d#X	8cc#/	.	[4ff#\	.	.
.	8b#X/J	.	.	.	.
=49	=49	=49	=49	=49	=49
4G#\ 4B#X	8ee\L	.	2ff#\]	.	.
.	8dd#X\	.	.	.	.
4r	8b#X\	.	.	.	.
.	8a\	.	.	.	.
4r	8g#\	.	4ee\)	.	.
.	8f#\J	.	.	.	.
=50	=50	=50	=50	=50	=50
2.CC#/ 2.C#	8e/L	.	2cc#\	-ka?	.
.	8g#/	.	.	.	.
.	8B#X/	<	.	.	.
.	8c#/	.	.	.	.
.	8e/	.	4r	.	.
.	8g#/J	[	.	.	.
=51	=51	=51	=51	=51	=51
2.C#^^\ 2.E 2.A	8ee\L	.	2.r	.	.
.	8dd#X\	.	.	.	.
.	8cc#\	.	.	.	.
.	8bn\	.	.	.	.
.	8a\	.	.	.	.
.	8f#\J	.	.	.	.
=52	=52	=52	=52	=52	=52
2C#^^\ 2E 2G#	8f##X/L	.	2.r	.	.
.	8g#/	>	.	.	.
.	8cc#/	.	.	.	.
.	8d#X/	.	.	.	.
!	!LO:TX:t=P:problem:kasownik i krzyżyk jednocześnie	!	!	!	!
4r	8f#X/	.	.	.	.
.	8e/J	]	.	.	.
!!LO:LB:g=original	!	!	!	!	!
=53	=53	=53	=53	=53	=53
4AA^^\ 4A	8B#X/L	.	2.r	.	.
.	8c#/	.	.	.	.
4GG#^^\ 4G#	8e/	.	.	.	.
.	8d#X/	.	.	.	.
4EE^^/ 4E	8c#/	.	.	.	.
.	8g#/J	.	.	.	.
=54	=54	=54	=54	=54	=54
4CC#/ 4C#	8cc#\L	.	[2.gg#\	Jaż-	.
.	8dd#X\	.	.	.	.
4G#\ 4c# 4e	8ee\	.	.	.	.
.	8b#X\	.	.	.	.
4r	8cc#\	.	.	.	.
.	8dd#\J	.	.	.	.
=55	=55	=55	=55	=55	=55
4CC#/ 4C#	8cc#/L	.	4gg#\]	.	.
.	8bn/	.	.	.	.
4DD#X/ 4D#X	8a/	.	4.ff#\	-bym	.
.	8g#/	.	.	.	.
4EE/ 4E	8cc#/	.	.	.	.
.	8g#/J	.	8ee\	ma-	.
=56	=56	=56	=56	=56	=56
2FF#/ 2F#	8a/L	.	2.dd#X\	-rze-	.
.	8b/	.	.	.	.
.	8cc#/	.	.	.	.
.	8a/	.	.	.	.
4AA\ 4A	8f#/	.	.	.	.
.	8c#/J	.	.	.	.
=57	=57	=57	=57	=57	=57
2EE/ 2E	8g#/L	.	2cc#\	-niom	.
.	8a/	.	.	.	.
.	8g#/	.	.	.	.
.	8c#/	.	.	.	.
4CC#/ 4C#	8d#X/	.	8r	.	.
.	8e/J	.	8g#/	się	.
!!LO:LB:g=original	!	!	!	!	!
=58	=58	=58	=58	=58	=58
4FF#/ 4F#	8c#/L	.	8.bn\	nie	.
.	8f#/	.	.	.	.
.	.	.	16a/	o-	.
4F#\ 4A 4c#	8a/	.	[(2ff#\	-par-	.
.	8g#/	.	.	.	.
4F#\ 4A 4dn	8b/	.	.	.	.
.	8a/J	.	.	.	.
=59	=59	=59	=59	=59	=59
4F#\ 4A 4d	8ff#\L	.	2ff#\]	.	.
.	8cc#\	.	.	.	.
4r	8een\	.	.	.	.
.	8dd\	.	.	.	.
4r	8a\	.	4ee\)	.	.
.	8gn\J	.	.	.	.
=60	=60	=60	=60	=60	=60
4r	8f#/L	.	2dd\	-ła?	.
.	8a/	.	.	.	.
4FF#/ 4F#	8c#/	.	.	.	.
.	8d/	.	.	.	.
4AA\ 4A	8gn/	.	4r	.	.
.	8f#/J	.	.	.	.
=61	=61	=61	=61	=61	=61
2.DD/ 2.D	8b/L	.	2.r	.	.
.	8a/	.	.	.	.
.	8f#/	.	.	.	.
.	8e/	.	.	.	.
.	8d/	.	.	.	.
.	8A/J	.	.	.	.
=62	=62	=62	=62	=62	=62
4BBB/ 4BB	8d/L	.	[2.ff#\	Ja.	.
.	8f#/	.	.	.	.
4BB\ 4D 4F#	8A#X/	.	.	.	.
.	8B/	.	.	.	.
4F#\ 4B	8d/	.	.	.	.
.	8f#/J	.	.	.	.
!!LO:LB:g=original	!	!	!	!	!
=63	=63	=63	=63	=63	=63
4F#\ 4B 4d	8cc#\L	.	4ff#\]	.	.
.	8dd\	.	.	.	.
4r	8cc#\	.	4r	.	.
.	8b\	.	.	.	.
4r	8f#\	.	8cc#\	je-	.
.	8e\J	.	8dd\	-go	.
=64	=64	=64	=64	=64	=64
4BBB/ 4BB	8d/L	.	2.ggn\	pa-	.
.	8f#/	.	.	.	.
4BB\ 4D 4Gn	8gn/	.	.	.	.
.	8a/	.	.	.	.
4BB\ 4D 4G	8b/	.	.	.	.
.	8cc#/J	.	.	.	.
=65	=65	=65	=65	=65	=65
4BB\ 4F# 4B	8dd\L	.	2ff#\	-ni,	.
.	8cc#\	.	.	.	.
4r	8b\	.	.	.	.
.	8cc#\	.	.	.	.
4BBB/ 4BB	8dd\	.	8r	.	.
.	8ff#\J	.	8ff#\	Rzy-	.
=66	=66	=66	=66	=66	=66
4FFF#/ 4FF#	8dd\L	.	[2.aa\	-mian-	.
.	8ee\	.	.	.	.
4D\ 4F# 4A	8ggn\	.	.	.	.
.	8ff#\	.	.	.	.
4F#\ 4A 4d	8dd\	.	.	.	.
.	8b\J	.	.	.	.
=67	=67	=67	=67	=67	=67
4F#\ 4A 4d	8a/L	.	2.aa\]	.	.
.	8dd/	.	.	.	.
4r	8b/	.	.	.	.
.	8a/	.	.	.	.
4r	8f#/	.	.	.	.
.	8e/J	.	.	.	.
=68	=68	=68	=68	=68	=68
4FF#/ 4D	4A/ 4d	.	[2.f#/	-ka?-	.
4r	4r	.	.	.	.
4r	4r	.	.	.	.
!!LO:PB:g=original	!	!	!	!	!
=69	=69	=69	=69	=69	=69
4r	4r	.	4f#/]	.	.
!	!LO:TX:b:i:t=marcato	!	!	!	!
!	!LO:TX:B:a:t=Maestoso.	!LO:DY:a	!	!	!
4.D^^\ 4.A 4.d	4.f#^^\ 4.a 4.dd 4.ff#	ff	4r	.	.
.	.	.	4r	.	.
8D\ 8A 8d	8f#/ 8a 8cc#	.	.	.	.
=70	=70	=70	=70	=70	=70
!	!LO:TX:a:i:t=ma con molto	!	!	!	!
4D\ 4A 4d	4f#/ 4a 4dd	.	2.r	.	.
4BB\ 4B	4d/ 4f# 4b 4dd	.	.	.	.
4AA\ 4A	4e/ 4a 4cc# 4ee	.	.	.	.
=71	=71	=71	=71	=71	=71
4DD/ 4D	4f#\ 4a 4dd 4ff#	.	2.r	.	.
4.BBB^^/ 4.BB	4.f#\ 4.b 4.dd 4.ff#	.	.	.	.
8EE/ 8E	8c#/ 8gn 8b 8cc#	.	.	.	.
=72	=72	=72	=72	=72	=72
4DD/ 4D	4d/ 4f# 4b 4dd	.	2.r	.	.
4GGn/ 4Gn	4d/ 4gn 4b 4dd	.	.	.	.
4FF#/ 4F#	4e/ 4a#X 4cc# 4ee	.	.	.	.
=73	=73	=73	=73	=73	=73
*	*^	*	*	*	*
4BBB^^/ 4BB	4b^^/ 4dd 4ff#	[2.f#\	.	2.r	.	.
4r	4rcc	.	.	.	.	.
4r	4rcc	.	.	.	.	.
*	*v	*v	*	*	*	*
=74	=74	=74	=74	=74	=74
2.r	2.f#/_	.	2.r	.	.
=75	=75	=75	=75	=75	=75
2.r	2f#/]	.	2.r	.	.
.	(4f#/	.	.	.	.
=76	=76	=76	=76	=76	=76
2.r	2fn/	>	2.r	.	.
.	4g-X/)	]	.	.	.
!!LO:LB:g=original	!	!	!	!	!
*kcancel	*kcancel	*	*kancel	*	*
=77||	=77||	=77||	=77||	=77||	=77||
*k[b-e-a-d-g-c-]	*k[b-e-a-d-g-c-]	*	*k[b-e-a-d-g-c-]	*	*
*M4/4	*M4/4	*	*M4/4	*	*
*met(c)	*met(c)	*	*met(c)	*	*
*	*^	*	*	*	*
!	!LO:TX:a:B:t=Tempo I. Andante.	!	!	!	!	!
[2AA-/ [2E- [2G-	(4.b-/	[2c-\	p	1r	.	.
.	8e-/	.	.	.	.	.
4AA-/] 4E-] 4G-]	8f/L	4c-\]	<	.	.	.
.	8e-/	.	.	.	.	.
4r	8g-/	4r	.	.	.	.
.	8b-/J)	.	[[	.	.	.
=78	=78	=78	=78	=78	=78	=78
2D-\ 2B-	(8dd-/	2g-\	.	1r	.	.
.	4ee-/	.	.	.	.	.
.	16dd-/LL	.	.	.	.	.
.	16b-/JJ	.	.	.	.	.
2r	8a-/L	2rd	.	.	.	.
.	8g-/	.	.	.	.	.
.	8b-/	.	.	.	.	.
.	8d-/J)	.	.	.	.	.
=79	=79	=79	=79	=79	=79	=79
2D-\ 2E- 2G-	(8e-/	2c-X\	.	1r	.	.
.	4g-/	.	.	.	.	.
.	16f/LL	.	>	.	.	.
.	16e-/JJ	.	.	.	.	.
4r	8d-/L	2ryy	.	.	.	.
.	8c-/	.	.	.	.	.
4D-\ 4F 4B-	8b-/	.	.	.	.	.
.	8a-/J)	.	]	.	.	.
*	*v	*v	*	*	*	*
=80	=80	=80	=80	=80	=80
!	!LO:TX:b:i:t=cantabile	!	!	!	!
.	8qg-/	.	.	.	.
!	!LO:N:vis=2.	!	!	!	!
8GGG-/ 8GG-	(2dd-\ 2ddd-	p	1r	.	.
8G-\L 8B- 8d-	.	.	.	.	.
8B-\ 8d- 8f	.	.	.	.	.
8B-\J 8d- 8g-	.	.	.	.	.
4ryy	4d-\ 4g- 4b-	.	.	.	.
4GG-:\ 4D-: 4B-:	8ee-\L 8eee-	.	.	.	.
.	8ff\J) 8fff	.	.	.	.
=81	=81	=81	=81	=81	=81
8GGG-/ 8GG-	(4ee-\ 4eee-	.	4r	.	.
8F\L 8c- 8e-	.	.	.	.	.
!	!	!	!	!	!LO:DY:a
8A-\ 8c- 8d-	8f\L 8cc- 8ff	.	4dd-\	O	p
8F\J 8c- 8e-	8g-\J 8gg-	.	.	.	.
!	!	!	!	!	!LO:DY:a
4F\ 4c- 4d-	8a-\L 8aa-	.	4.ff\	mój	<
.	8b-\ 8bb-	.	.	.	.
4r	8cc-\ 8ccc-	.	.	.	.
.	8a-\J) 8aa-	.	8ee-\	Ly-	[
!!LO:LB:g=original	!	!	!	!	!
=82	=82	=82	=82	=82	=82
.	8qb-/ 8qbb-	.	.	.	.
!	!	!	!	!	!LO:DY:a
8GGG-/ 8GG-	2dd-\ 2ddd-	.	([2gg-\	-ko-	f
8G-\L 8B- 8d-	.	.	.	.	.
8G-\ 8B- 8e-	.	.	.	.	.
8G-\J 8B-	.	.	.	.	.
4E-\ 4G- 4cn	(4ccn\ 4cccn	>	8gg-\L]	.	.
.	.	.	8ff\	.	.
4EE-/ 4E-	8g-\L 8gg-	.	8aa-\	.	.
.	8cc\J) 8ccc	]	8gg-\J)	.	.
=83	=83	=83	=83	=83	=83
8GGG-/ 8GG-	2dd-\ 2ddd-	.	2b-\	-nie!	.
8G-\L 8B- 8d-	.	.	.	.	.
8G-\ 8B- 8e-	.	.	.	.	.
8G-\J 8B- 8e-	.	.	.	.	.
4G-\ 4B- 4d-	4r	.	8r	.	.
.	.	.	8dd-\	mną	.
4r	4g-\ 4gg-	.	8b-\	nie	.
.	.	.	8gg-\	o-	.
=84	=84	=84	=84	=84	=84
8DD-\L 8D-	(4cc-\ 4ff 4ccc-	.	2ff\	-wła-	.
8F\J 8c- 8d-	.	.	.	.	.
4F\ 4c- 4f	8b-\L 8bb-	.	.	.	.
.	8a-\J 8aa-	.	.	.	.
8EE-/L 8E-	8cc-\L 8ccc-	.	4ee-\	-dnie	.
8E-/J 8G-	8dd-\ 8ddd-	.	.	.	.
4E-\ 4G- 4c-	8ee-\ 8eee-	.	8r	.	.
.	8e-\J) 8ee-	.	8g-/	pio-	.
=85	=85	=85	=85	=85	=85
8AAA-\L 8AA-	(4.g-\ 4.gg-	.	4.ee-\	-sen-	.
8E-\J 8G- 8c-	.	.	.	.	.
4G-\ 4c- 4e-	.	.	.	.	.
.	8b-\) 8bb-	.	8ee-\	-ka	.
8DD-\L 8D-	[4a-\ 4ee- [4aa-	.	(4ee-\	twa	.
8F\J 8c- 8d-	.	.	.	.	.
4c-\ 4d- 4f	8a-\] 8dd- 8aa-]	.	8dd-\)	.	.
.	8r	.	8r	.	.
!!LO:LB:g=original	!	!	!	!	!
=86	=86	=86	=86	=86	=86
4GGG-/ 4GG-	(8b-\L 8bb-	.	8r	.	.
!	!	!	!	!	!LO:DY:a
.	8g-\J) 8gg-	.	8g-/	Nie	f
4D-\ 4G- 4B- 4d-	8.dd-\L 8.ddd-	<	8.dd-\	o-	.
.	16ee-\Jk 16eee-	.	16ee-\	-pa-	.
4GGG-/ 4GG-	(8ee-\ 8eee-	.	8ee-\	-nu-	.
.	4gg-\) 4ggg-	.	4gg-\	-je	.
4E-\ 4G- 4B- 4e-	.	.	.	.	.
.	8b-\ 8bb-	.	8b-\	nie	.
=87	=87	=87	=87	=87	=87
4AAAn/ 4AAn	((4.ccn\ 4.cccn	.	(8ccn\	weź-	.
.	.	.	4ff\)	.	.
4E-\ 4F 4cn	.	.	.	.	.
.	8f\) 8ff)	<	8ee-\	-mie	.
4BBB-/ 4BB-	8cc\L 8ccc	.	4gg-\	zdra-	.
.	8b-\ 8bb-	[	.	.	.
4D-\ 4F 4B- 4d-	8dd-\ 8ddd-	.	4ff\	-dnie	.
.	8ff\J 8fff	.	.	.	.
=88	=88	=88	=88	=88	=88
4BBB-/ 4BB-	(8bb-\L 8bbb-	f	1r	.	.
.	8ff\J 8fff	.	.	.	.
8G-\L 8B- 8d-	[4gg-\) [4ggg-	.	.	.	.
8G-\J 8B- 8e-	.	.	.	.	.
4F\ 4B- 4d- 4f	8gg-\L] 8ggg-]	.	.	.	.
.	(8ff\ 8fff	.	.	.	.
4r	8an\ 8aan	.	.	.	.
.	8b-\J) 8bb-	.	.	.	.
=89	=89	=89	=89	=89	=89
2A-X\ 2e- 2g-	2cc-X\ 2ee- 2ccc-X	p	4r	.	.
!	!	!	!	!	!LO:DY:a
.	.	.	8.ee-\	A-	p
.	.	.	16a-/	-le	.
4F\ 4c- 4f	4cc-\ 4ee- 4ccc-	.	4cc-X\	mi	.
4B-\ 4f	4b-\ 4ddn 4bb-	.	8.b-\	szczę-	.
.	.	.	16ff\	-ście	.
=90	=90	=90	=90	=90	=90
*	*^	*	*	*	*
4E-\ 4B- 4e-	8g-\L 8ee- 8gg-	2.ryy	.	2.gg-\	da!	.
.	(8b-\	.	.	.	.	.
4r	8ccn\	.	.	.	.	.
.	8ddn\J	.	<	.	.	.
4r	8ee-\L	.	.	.	.	.
.	8ff\J)	.	.	.	.	.
4AA-\ 4A-	(8gg-/L	4ccn\	[	4r	.	.
.	8bb-/J)	.	.	.	.	.
!!LO:LB:g=original	!	!	!	!	!	!
=91	=91	=91	=91	=91	=91	=91
[2D-\ [2B-	[2dd-/	[2g-\	.	4r	.	.
.	.	.	.	8.gg-\	A-	.
.	.	.	.	16ff\	-le	.
4D-\] 4B-]	8dd-/L]	4g-\]	.	[2dd-\	mi	.
.	(8ee-'/	.	.	.	.	.
4r	8ff'/	4r	.	.	.	.
.	8ee-'/J)	.	.	.	.	.
=92	=92	=92	=92	=92	=92	=92
2r	(<8dd-/L	2re	.	2dd-\]	.	.
.	8gg-/	.	.	.	.	.
.	8cc-/	.	.	.	.	.
.	8b-/J)	.	.	.	.	.
4D-\ 4E-	4c-/ 4g- 4cc-	2ryy	.	4r	.	.
4D-\ 4A-	4c-/ 4f 4dd-	.	.	8.ff\	szczę-	.
.	.	.	.	16ee-\	-ście	.
*	*v	*v	*	*	*	*
=93	=93	=93	=93	=93	=93
4GG-\ 4D- 4B-	(>8g-/L 8b-	.	(4dd-\	da,	.
.	8dd-/J	.	.	.	.
4r	8ff/L	.	2bb-\)	.	.
.	8ee-/J	.	.	.	.
2r	4dd-/)	.	.	.	.
.	4r	.	8.cc-\	szczę-	.
!	!	!	!LO:N:vis=4	!	!
.	.	.	16b-\	-śćie	.
=94	=94	=94	=94	=94	=94
*	*^	*	*	*	*
[2GG-/ [2D-	(8g-/L	[2B-\	pp	[1gg-	da!-	.
.	8b-/	.	.	.	.	.
.	8g-/	.	.	.	.	.
.	8dn/J	.	.	.	.	.
4GG-/] 4D-]	4d-X/)	4B-\]	.	.	.	.
4r	(8an/L	4r	.	.	.	.
.	8b-/J)	.	.	.	.	.
*	*v	*v	*	*	*	*
=95	=95	=95	=95	=95	=95
[2G-\ [2d-	[2g-\ [2b- [2gg-	.	2gg-;\_	.	.
8G-\] 8d-]	8g-\] 8b-] 8gg-]	.	8gg-\]	.	.
8r	8r	.	8r	.	.
4r	4r	.	4r	.	.
=||	=||	=||	=||	=||	=||
*-	*-	*-	*-	*-	*-
!!!system-decoration: s1{(s2,s3)}
!!!RDF**kern: > = above
!!!RDF**kern: < = below
!!!ENC: Anastazja Marusiak
!!!END: 2022-10-07
!!!ENC: Natalia Wrzos
!!!END: 2022-10-21
!!!YEC: Copyright 2022 Narodowy Instytut Fryderyka Chopina (https://polishscores.org)
!!!YEM: License CC-BY-4.0 (https://creativecommons.org/licenses/by/4.0)
